remix/Finance/coupon-4-line.svg

<svg viewBox="0 0 24 24" fill="currentColor" xmlns="http://www.w3.org/2000/svg"><path d="M10.0049 20.9998H3.00488C2.4526 20.9998 2.00488 20.5521 2.00488 19.9998V3.99979C2.00488 3.4475 2.4526 2.99979 3.00488 2.99979H10.0049C10.0049 4.10436 10.9003 4.99979 12.0049 4.99979C13.1095 4.99979 14.0049 4.10436 14.0049 2.99979H21.0049C21.5572 2.99979 22.0049 3.4475 22.0049 3.99979V19.9998C22.0049 20.5521 21.5572 20.9998 21.0049 20.9998H14.0049C14.0049 19.8952 13.1095 18.9998 12.0049 18.9998C10.9003 18.9998 10.0049 19.8952 10.0049 20.9998ZM8.54001 18.9998C9.23163 17.8042 10.5243 16.9998 12.0049 16.9998C13.4854 16.9998 14.7781 17.8042 15.4698 18.9998H20.0049V4.99979H15.4698C14.7781 6.19539 13.4854 6.99979 12.0049 6.99979C10.5243 6.99979 9.23163 6.19539 8.54001 4.99979H4.00488V18.9998H8.54001ZM6.00488 7.99979H8.00488V15.9998H6.00488V7.99979ZM16.0049 7.99979H18.0049V15.9998H16.0049V7.99979Z"/></svg>

<svg viewBox="0 0 24 24" xmlns="http://www.w3.org/2000/svg"><path fill="none" d="M0 0h24v24H0Z"/><path d="M10 21H3v0c-.56 0-1-.45-1-1V4v0c0-.56.44-1 1-1h7v0c0 1.1.89 2 2 2 1.1 0 2-.9 2-2h7v0c.55 0 1 .44 1 1v16 0c0 .55-.45 1-1 1h-7v0c0-1.11-.9-2-2-2 -1.11 0-2 .89-2 2Zm-1.47-2v0c.71-1.24 2.03-2.01 3.465-2 1.48 0 2.77.8 3.465 2h4.535V5H15.46v0c-.72 1.23-2.04 2-3.465 2v0c-1.43 0-2.76-.77-3.465-2H3.99v14H8.53ZM5.99 8h2v8h-2V8Zm10 0h2v8h-2V8Z"/></svg>
